img/icon_instagram.svg

<svg width="32" height="32" viewBox="0 0 32 32" fill="none" xmlns="http://www.w3.org/2000/svg">
<path d="M20.7999 16.0001C20.7999 17.2732 20.2942 18.4941 19.394 19.3943C18.4938 20.2944 17.2729 20.8001 15.9999 20.8001C14.7269 20.8001 13.506 20.2944 12.6058 19.3943C11.7056 18.4941 11.1999 17.2732 11.1999 16.0001C11.1999 15.7265 11.2287 15.4593 11.2783 15.2001H9.59989V21.5953C9.59989 22.0401 9.95989 22.4001 10.4047 22.4001H21.5967C21.8099 22.3997 22.0142 22.3147 22.1647 22.1639C22.3153 22.013 22.3999 21.8085 22.3999 21.5953V15.2001H20.7215C20.7711 15.4593 20.7999 15.7265 20.7999 16.0001ZM15.9999 19.2001C16.4202 19.2 16.8364 19.1171 17.2247 18.9562C17.613 18.7952 17.9658 18.5594 18.263 18.2621C18.5601 17.9648 18.7958 17.6119 18.9566 17.2235C19.1173 16.8351 19.2 16.4189 19.1999 15.9985C19.1998 15.5782 19.1169 15.162 18.9559 14.7737C18.795 14.3854 18.5591 14.0326 18.2618 13.7355C17.9645 13.4383 17.6116 13.2026 17.2232 13.0419C16.8349 12.8811 16.4186 12.7984 15.9983 12.7985C15.1494 12.7987 14.3353 13.1362 13.7352 13.7366C13.1351 14.337 12.7981 15.1512 12.7983 16.0001C12.7985 16.849 13.1359 17.6631 13.7364 18.2632C14.3368 18.8633 15.151 19.2003 15.9999 19.2001ZM19.8399 12.6401H21.7583C21.8857 12.6401 22.008 12.5896 22.0983 12.4996C22.1885 12.4097 22.2395 12.2876 22.2399 12.1601V10.2417C22.2399 10.114 22.1892 9.99151 22.0988 9.90119C22.0085 9.81088 21.886 9.76014 21.7583 9.76014H19.8399C19.7122 9.76014 19.5897 9.81088 19.4993 9.90119C19.409 9.99151 19.3583 10.114 19.3583 10.2417V12.1601C19.3599 12.4241 19.5759 12.6401 19.8399 12.6401ZM15.9999 0.640137C11.9262 0.640137 8.01929 2.25842 5.13873 5.13898C2.25817 8.01954 0.639893 11.9264 0.639893 16.0001C0.639893 20.0739 2.25817 23.9807 5.13873 26.8613C8.01929 29.7419 11.9262 31.3601 15.9999 31.3601C18.017 31.3601 20.0144 30.9628 21.8779 30.1909C23.7415 29.419 25.4347 28.2876 26.8611 26.8613C28.2874 25.435 29.4188 23.7417 30.1907 21.8782C30.9626 20.0146 31.3599 18.0172 31.3599 16.0001C31.3599 13.983 30.9626 11.9857 30.1907 10.1221C29.4188 8.25856 28.2874 6.56528 26.8611 5.13898C25.4347 3.71267 23.7415 2.58126 21.8779 1.80935C20.0144 1.03743 18.017 0.640137 15.9999 0.640137ZM23.9999 22.2225C23.9999 23.2001 23.1999 24.0001 22.2223 24.0001H9.77749C8.79989 24.0001 7.99989 23.2001 7.99989 22.2225V9.77774C7.99989 8.80014 8.79989 8.00014 9.77749 8.00014H22.2223C23.1999 8.00014 23.9999 8.80014 23.9999 9.77774V22.2225Z" fill="white" fill-opacity="0.3"/>
</svg>

<svg width="32" height="32" fill="none" xmlns="http://www.w3.org/2000/svg"><path d="M20.8 16a4.8 4.8 0 11-9.6 0c0-.274.029-.54.078-.8H9.6v6.395c0 .445.36.805.805.805h11.192a.805.805 0 00.803-.805V15.2h-1.678c.05.26.078.527.078.8zM16 19.2a3.202 3.202 0 10-.002-6.403A3.202 3.202 0 0016 19.2zm3.84-6.56h1.918a.482.482 0 00.482-.48v-1.918a.481.481 0 00-.482-.482H19.84a.482.482 0 00-.482.482v1.918c.002.264.218.48.482.48zM16 .64a15.36 15.36 0 100 30.72A15.36 15.36 0 0016 .64zm8 21.582C24 23.2 23.2 24 22.222 24H9.777C8.8 24 8 23.2 8 22.223V9.777C8 8.8 8.8 8 9.777 8h12.445C23.2 8 24 8.8 24 9.778v12.444z" fill="#fff" fill-opacity=".3"/></svg>
